!!!OTL: Buchsbaum und Felbinger. / c. Dritte Art.
!!!ARE: Europa, Mitteleuropa, Deutschland
!!!SCT: A0273C
!!!TXL: @@DE
!!!YEM: Copyright 1995, estate of Helmut Schaffrath.
**kern	**text
*M3/2	*
*met(3)	*
*clefC1	*
*k[]	*
*G:	*
{2g	2._Der
=1	=1
1g	Buxbaum
2g	.
=2	=2
1a	ſprach:
2b	'ich
=3	=3
1cc	bin
2b	ſo
=4	=4
1a}	kün,
{2b	Jch
=5	=5
1cc	bleib
2cc	Som-
=6	=6
1b	-mer
2g	und
=7	=7
1a	Win-
2b	-ter
=8	=8
1a}	grün.
{2g	Das
=9	=9
1g	thuſtu
2g	.
=10	=10
1g	lay-
2e	-der
=11	=11
1f	Fel-
2g	-ber
=12	=12
1a}	nicht,
{2b	Verleurſt
=13	=13
1cc	.
2b	dein
=14	=14
1a	be-
2g	-ſte
=15	=15
1.a	Ʒwei-
=16	=16
1.g;}	-ge.
==	==
!!!GTL: Raethsel-, Wett-, Wunsch- und Luegenlieder
!!!AGN: Romanze, Ballade, Lied
!! Werlin Hs. von 1646 S. 1502.
!!!ONB: ESAC (Essen Associative Code) Database: ALTDEU
!!!AMT: simple triple
!!!AIN: vox
!!!EED: Helmut Schaffrath
!!!EEV: 1.0
!!!RDF**kern: l = terminal long
!!!URL-scan: https://rosdok.uni-rostock.de/mcrviewer/recordIdentifier/rosdok_ppn738218359/iview2/phys_0429.iview2?x=-495.6391625615763&y=711.5364532242529&scale=0.4629418472063854&rotation=0&layout=singlePageLayout&logicalDiv=log_0011
!!!ENC: Anna Maria Matuszewska
!!!EEV: 2024/11/03
*-	*-
